!!!COM: Ulenberg, Caspar
!!!CDT: 1548/12/24-1617/02/16
!!!OPR: Die Psalmen Davids
!!!ONM: 12
!!!ONM-carmgen: 10
!!!OTL@@LA: Usquequo Domine
!!!OTL-incipit@@DE: Hilff lieber Herr die heilig frommen
**kern	**text
*Ivox	*
*clefC4	*
*k[b-]	*
*M2/1	*
*met(C|)	*
*MM180	*
=-	=-
*xywh-#92:245,963,694,450	*
1G	Wie
2G	lang
2G	O
=-	=-
2F	Herr
2D	ver-
2G	-gis-
2E	-tu
=-	=-
1D	mein/
1r	.
=-	=-
*xywh-#93:121,145,713,286	*
1B-	Wirt
2B-	diß
2B-	denn
=-	=-
2A	im-
2G	-mer
1A	we-
=-	=-
1G	-ren?
1r	.
=-	=-
1G	Wie
*xywh-#93:127,429,714,235	*
2G	lang
2G	wil-
=-	=-
2F	-tu
2D	das
2G	ant-
2E	-litz
=-	=-
1D	dein
1B-	Von
=-	=-
2A	mir
*xywh-#93:122,664,723,222	*
2G	hin
1A	ke-
=-	=-
1G	-ren?
1r	.
=-	=-
1A	Wie
2A	lang
2F	soll
=-	=-
2G	mein
2A	seel
*xywh-#93:135,888,715,243	*
2B-	küm-
2G	-mer-
=-	=-
1F	-lich/
1r	.
=-	=-
1D	Mit
2F	sol-
2F	-chem
=-	=-
2F	schwe-
2G	-ren
*xywh-#93:139,1134,715,275	*
1A	za-
=-	=-
2G	-gen
2F	In
2G	mir
2A	rat-
=-	=-
1B-	-schla-
1A	-gen?
=-	=-
1r	.
1d	Soll
=-	=-
*xywh-#94:179,105,716,300	*
2c	ich
2B-	denn
2A	teg-
2G	-lich
=-	=-
1F	eng-
1G	-sten
=-	=-
1D	mich/
1r	.
=-	=-
1A	Mit
*xywh-#94:183,408,701,235	*
2B-	bit-
2B-	-ter-
=-	=-
2B-	-li-
2c	-chen
1d	schmer-
=-	=-
2B-	-tzen
2d	In
2c	mei-
2B-	-nẽ
=-	=-
1A	her-
1Fll;	-tzen.
==	==
*-	*-
!!!RDF**kern: l = terminal long
!!!RDF**kern: i = editorial accidental
!!!AGN: Psalm
!!!YOR: https://mdz-nbn-resolving.de/details:bsb11116252
!!!YOO: München, Bayerische Staatsbibliothek
!!!URL-scan: https://www.digitale-sammlungen.de/de/view/bsb11116252?page=92
!!!IIIF: https://api.digitale-sammlungen.de/iiif/presentation/v2/bsb11116252/manifest
!!!EED: Wolfgang Drescher
!!!END: 2023/04/02
!!!ENC: Wolfgang Drescher
!!!EEV: 2023/04/02
!!!title: @{ONM}. @{OTL} / <i>@{OTL-incipit@@DE}</i>